flaticon/essential/repeat.svg

<svg xmlns="http://www.w3.org/2000/svg" width="32" height="32" viewBox="0 0 24 24">
    <path d="M.792969 11.765625C1.050781 11.765625 1.261719 11.558594 1.261719 11.300781 1.261719 8.46875 3.566406 6.164062 6.398438 6.164062L17.601562 6.164062 17.601562 10.347656 24 5.695312 17.601562 1.042969 17.601562 5.230469 6.398438 5.230469C3.050781 5.230469.328125 7.953125.328125 11.300781.328125 11.558594.535156 11.765625.792969 11.765625zM18.535156 2.878906L22.414062 5.695312 18.535156 8.515625zM23.207031 12.234375C22.949219 12.234375 22.738281 12.441406 22.738281 12.699219 22.738281 15.53125 20.433594 17.835938 17.601562 17.835938L6.398438 17.835938 6.398438 13.652344 0 18.304688 6.398438 22.957031 6.398438 18.769531 17.601562 18.769531C20.949219 18.769531 23.671875 16.046875 23.671875 12.699219 23.671875 12.441406 23.464844 12.234375 23.207031 12.234375zM5.464844 21.121094L1.585938 18.304688 5.464844 15.484375zM5.464844 21.121094"/>
</svg>

<svg xmlns="http://www.w3.org/2000/svg" width="32" height="32" viewBox="0 0 24 24">
    <path d="M.793 11.766a.467.467 0 0 0 .469-.465 5.143 5.143 0 0 1 5.136-5.137h11.204v4.184L24 5.695l-6.398-4.652V5.23H6.398a6.077 6.077 0 0 0-6.07 6.07c0 .259.207.466.465.466zm17.742-8.887l3.88 2.816-3.88 2.82zm0 0M23.207 12.234a.467.467 0 0 0-.469.465 5.143 5.143 0 0 1-5.136 5.137H6.398v-4.184L0 18.305l6.398 4.652V18.77h11.204a6.077 6.077 0 0 0 6.07-6.07.463.463 0 0 0-.465-.466zM5.465 21.121l-3.88-2.816 3.88-2.82zm0 0"/>
</svg>
